X:1
T:Concord, 99.99 D
T:Concord, 99.99 D
T:George Coles Stebbins, 1877
T:Public Domain Courtesy of the Cyber Hymnal™
C:George Coles Stebbins, 1877
Z:Public Domain
Z:Courtesy of the Cyber Hymnal™
%%score ( 1 2 ) ( 3 4 )
L:1/8
Q:1/4=101
M:4/4
K:Eb
V:1 treble 
V:2 treble 
V:3 bass 
V:4 bass 
V:1
 [EB]2 [FB]>[^Fc] [GB]2 [EG][=FA] | [EB]2 [Ge]2 [EB]4 | [DA]2 [EA]>[EB] [FA]2 [EG][DF] | %3
 [EG]2 [Ec]2 [EB]4 | [EB]2 [FB]>[^Fc] [GB]2 [EG][DA] | [EB]2 [Ee]2 [Ad]4 | %6
 [Ae]2 [Ad]>[Ac] [EB]2 [EB][EA] | [EG]2 [DF]2 E4 | [Ge]2 [Ge]>[Ge] [Ae]2 [Ad][Ac] | %9
 [GB]2 [^Fc]2 [GB]4 | [Ec]2 [Ec]>[Ec] [EB]2 [DA][EG] | F2 [E=A]2 [DB]4 | %12
 [EB]2 [FB]>[^Fc] [GB]2 [EG][DA] | [EB]2 [Ee]2 [Ad]4 | [Ae]2 [Ad]>[Ac] [EB]2 [EB][EA] | %15
 [EG]2 [DF]2 E4 |] %16
V:2
 x8 | x8 | x8 | x8 | x8 | x8 | x8 | x4 E4 | x8 | x8 | x8 | F2 x6 | x8 | x8 | x8 | x4 E4 |] %16
V:3
 [E,G,]2 [E,A,]>[E,=A,] [E,B,]2 [E,B,][E,B,] | [E,G,]2 [E,B,]2 [E,G,]4 | %2
 [B,,B,]2 [C,B,]>[C,B,] [D,B,]2 [B,,B,][B,,B,] | [E,B,]2 [E,A,]2 [E,G,]4 | %4
 [E,G,]2 [E,A,]>[E,=A,] [E,B,]2 [E,B,][F,B,] | [G,B,]2 [G,B,]2 [F,B,]4 | %6
 [E,C]2 [E,B,]>[E,A,] [E,G,]2 [G,B,][A,C] | B,2 [B,,A,]2 [E,G,]4 | %8
 [E,B,]2 [E,B,]>[E,B,] [E,C]2 [E,D][E,E] | [E,B,]2 [E,=A,]2 [E,B,]4 | %10
 A,2 A,>A, [G,B,]2 [F,B,][E,B,] | [D,B,]2 [C,F,]2 [B,,F,]4 | %12
 [E,G,]2 [E,A,]>[E,=A,] [E,B,]2 [E,B,][F,B,] | [G,B,]2 [G,B,]2 [F,B,]4 | %14
 [E,C]2 [E,B,]>[E,A,] [E,G,]2 [G,B,][A,C] | B,2 [B,,A,]2 [E,G,]4 |] %16
V:4
 x8 | x8 | x8 | x8 | x8 | x8 | x8 | B,2 x6 | x8 | x8 | A,2 A,>A, x4 | x8 | x8 | x8 | x8 | B,2 x6 |] %16

